X: 3
T: St. Kilda Wedding
R: reel
M: 4/4
L: 1/8
K: Amaj
A3B Afec|B/B/B cA F2EF|A3B Ace=g|[1f/f/f fg fefa:|[2f/f/f fg fefg|
agab ae e/e/e|fgag f/f/f ed|cefg agfa|ecac B/B/B AB|
eaag ae e/e/e|fgag f/f/f ed|cefg agfa|ecac B/B/B AB||


Tune 1606	Setting 27003

